X: 1
T: Paddy Fahey's
R: reel
M: 4/4
L: 1/8
K: Dmaj
D2-|:DEFG AGFD|(3EFG AB ~=c2Bc|Ad ~d2 Adad|eged cAGE|
D2 (3EFG AG (3FED|(3EFG AB ~=c2Bc|Ad ~d2 Adfd|1 cAGE FDDA,:|2 cAGE FDD2||
|:fgag fdAG|~F2 DF GE=CE|DFAd f2ed|(3Bcd ef g2ag|
fgag fdAG|~F2 DF GE=CE|DFAd f2ed|1 cAGE FDD2:|2 cAGE FDDA,||

composer: Paddy Fahey
